src/public/img/landing/new/no-results.svg

<svg width="274" height="154" viewBox="0 0 274 154" fill="none" xmlns="http://www.w3.org/2000/svg">
<rect y="18" width="222" height="80" rx="12" fill="#F3F5F7"/>
<rect x="16" y="34" width="52" height="12" rx="4" fill="url(#paint0_linear_3719_31925)"/>
<rect x="16" y="54" width="190" height="10" rx="4" fill="url(#paint1_linear_3719_31925)"/>
<rect x="16.5" y="72.5" width="25" height="9" rx="3.5" fill="white" stroke="#CFD6DD"/>
<rect x="46.5" y="72.5" width="25" height="9" rx="3.5" fill="white" stroke="#CFD6DD"/>
<rect x="46" y="68" width="226" height="84" rx="14" fill="#F3F5F7"/>
<rect x="64" y="86" width="72" height="12" rx="4" fill="url(#paint2_linear_3719_31925)"/>
<rect x="64" y="106" width="190" height="10" rx="4" fill="url(#paint3_linear_3719_31925)"/>
<rect x="64.5" y="124.5" width="25" height="9" rx="3.5" fill="white" stroke="#CFD6DD"/>
<rect x="94.5" y="124.5" width="25" height="9" rx="3.5" fill="white" stroke="#CFD6DD"/>
<rect x="124.5" y="124.5" width="25" height="9" rx="3.5" fill="white" stroke="#CFD6DD"/>
<rect x="46" y="68" width="226" height="84" rx="14" stroke="white" stroke-width="4"/>
<circle cx="222" cy="26" r="25" fill="white" stroke="#DFE3E7" stroke-width="2"/>
<rect width="24" height="24" transform="translate(210 14)" fill="white"/>
<path fill-rule="evenodd" clip-rule="evenodd" d="M213.514 32.3921C213.212 32.6753 213.197 33.1499 213.48 33.4522C213.709 33.6967 214.063 33.7536 214.35 33.6167C214.389 33.5345 214.444 33.4581 214.515 33.3921L229.427 19.4253C229.485 19.3711 229.549 19.3279 229.617 19.2955C229.746 19.025 229.704 18.6918 229.487 18.46C229.204 18.1576 228.729 18.1421 228.427 18.4253L226.925 19.8323C225.478 18.9182 223.805 18.2498 222 18.2498C218.936 18.2498 216.253 20.176 214.408 21.9607C213.47 22.8674 212.714 23.7715 212.192 24.4481C211.931 24.787 211.727 25.0704 211.588 25.2706C211.518 25.3708 211.464 25.4502 211.427 25.5055C211.409 25.5332 211.395 25.5548 211.385 25.57L211.373 25.5879L211.37 25.5931L211.369 25.5947C211.369 25.5947 211.368 25.5957 212 25.9998L211.368 25.5957C211.211 25.8421 211.211 26.1576 211.368 26.404L212 25.9998C211.368 26.404 211.368 26.404 211.368 26.404L211.37 26.4066L211.373 26.4118L211.385 26.4297C211.395 26.4449 211.409 26.4665 211.427 26.4941C211.464 26.5495 211.518 26.6289 211.588 26.729C211.727 26.9293 211.931 27.2127 212.192 27.5516C212.714 28.2282 213.47 29.1323 214.408 30.039C214.665 30.2878 214.938 30.5394 215.227 30.7881L213.514 32.3921ZM218 25.9998C218 26.645 218.153 27.2544 218.424 27.794L216.329 29.7563C216.023 29.4984 215.73 29.2313 215.45 28.9607C214.578 28.1174 213.87 27.2715 213.38 26.6356C213.187 26.386 213.029 26.1697 212.909 25.9998C213.029 25.83 213.187 25.6137 213.38 25.3641C213.87 24.7282 214.578 23.8823 215.45 23.039C217.224 21.3237 219.541 19.7498 222 19.7498C223.325 19.7498 224.609 20.2068 225.788 20.8966L224.024 22.549C223.43 22.2 222.739 21.9998 222 21.9998C219.791 21.9998 218 23.7907 218 25.9998Z" fill="#111A2C"/>
<path d="M229.255 21.6417L228.157 22.67C228.291 22.7919 228.422 22.9151 228.55 23.039C229.422 23.8823 230.13 24.7282 230.62 25.3641C230.813 25.6137 230.971 25.83 231.091 25.9998C230.971 26.1697 230.813 26.386 230.62 26.6356C230.13 27.2715 229.422 28.1174 228.55 28.9607C226.776 30.676 224.459 32.2498 222 32.2498C220.895 32.2498 219.819 31.9321 218.808 31.4265L217.65 32.5102C218.959 33.2438 220.43 33.7498 222 33.7498C225.064 33.7498 227.747 31.8237 229.592 30.039C230.53 29.1323 231.286 28.2282 231.808 27.5516C232.069 27.2127 232.273 26.9293 232.412 26.729C232.482 26.6289 232.536 26.5495 232.573 26.4941C232.591 26.4665 232.605 26.4449 232.615 26.4297L232.627 26.4118L232.63 26.4066L232.631 26.405C232.631 26.405 232.632 26.404 232 25.9998L232.632 26.404C232.789 26.1576 232.789 25.8421 232.632 25.5957L232 25.9998C232.632 25.5957 232.632 25.5957 232.632 25.5957L232.63 25.5931L232.627 25.5879L232.615 25.57C232.605 25.5548 232.591 25.5332 232.573 25.5055C232.536 25.4502 232.482 25.3708 232.412 25.2706C232.273 25.0704 232.069 24.787 231.808 24.4481C231.286 23.7715 230.53 22.8674 229.592 21.9607C229.483 21.8547 229.37 21.7482 229.255 21.6417Z" fill="#111A2C"/>
<path d="M220.6 29.7479C221.036 29.9108 221.507 29.9998 222 29.9998C224.209 29.9998 226 28.209 226 25.9998C226 25.5994 225.941 25.2127 225.832 24.8479L220.6 29.7479Z" fill="#111A2C"/>
<defs>
<linearGradient id="paint0_linear_3719_31925" x1="16" y1="46" x2="68" y2="46" gradientUnits="userSpaceOnUse">
<stop stop-color="#111A2C" stop-opacity="0.44"/>
<stop offset="1" stop-color="#111A2C" stop-opacity="0.24"/>
</linearGradient>
<linearGradient id="paint1_linear_3719_31925" x1="16" y1="64" x2="206" y2="64" gradientUnits="userSpaceOnUse">
<stop stop-color="#111A2C" stop-opacity="0.24"/>
<stop offset="1" stop-color="#111A2C" stop-opacity="0.04"/>
</linearGradient>
<linearGradient id="paint2_linear_3719_31925" x1="64" y1="98" x2="136" y2="98" gradientUnits="userSpaceOnUse">
<stop stop-color="#111A2C" stop-opacity="0.44"/>
<stop offset="1" stop-color="#111A2C" stop-opacity="0.24"/>
</linearGradient>
<linearGradient id="paint3_linear_3719_31925" x1="64" y1="116" x2="254" y2="116" gradientUnits="userSpaceOnUse">
<stop stop-color="#111A2C" stop-opacity="0.24"/>
<stop offset="1" stop-color="#111A2C" stop-opacity="0.04"/>
</linearGradient>
</defs>
</svg>

<svg xmlns="http://www.w3.org/2000/svg" width="274" height="154" fill="none">
  <rect width="222" height="80" y="18" fill="#F3F5F7" rx="12"/>
  <rect width="52" height="12" x="16" y="34" fill="url(#a)" rx="4"/>
  <rect width="190" height="10" x="16" y="54" fill="url(#b)" rx="4"/>
  <rect width="25" height="9" x="16.5" y="72.5" fill="#fff" stroke="#CFD6DD" rx="3.5"/>
  <rect width="25" height="9" x="46.5" y="72.5" fill="#fff" stroke="#CFD6DD" rx="3.5"/>
  <rect width="226" height="84" x="46" y="68" fill="#F3F5F7" rx="14"/>
  <rect width="72" height="12" x="64" y="86" fill="url(#c)" rx="4"/>
  <rect width="190" height="10" x="64" y="106" fill="url(#d)" rx="4"/>
  <rect width="25" height="9" x="64.5" y="124.5" fill="#fff" stroke="#CFD6DD" rx="3.5"/>
  <rect width="25" height="9" x="94.5" y="124.5" fill="#fff" stroke="#CFD6DD" rx="3.5"/>
  <rect width="25" height="9" x="124.5" y="124.5" fill="#fff" stroke="#CFD6DD" rx="3.5"/>
  <rect width="226" height="84" x="46" y="68" stroke="#fff" stroke-width="4" rx="14"/>
  <circle cx="222" cy="26" r="25" fill="#fff" stroke="#DFE3E7" stroke-width="2"/>
  <path fill="#fff" d="M210 14h24v24h-24z"/>
  <path fill="#111A2C" fill-rule="evenodd" d="M213.514 32.392a.75.75 0 0 0 .836 1.225.738.738 0 0 1 .165-.225l14.912-13.967a.75.75 0 0 1 .19-.13.75.75 0 0 0-1.19-.87l-1.502 1.407c-1.447-.914-3.12-1.582-4.925-1.582-3.064 0-5.747 1.926-7.592 3.71a23.27 23.27 0 0 0-2.981 3.546l-.042.064-.012.018-.003.005-.001.002L212 26l-.632-.404a.752.752 0 0 0 0 .808L212 26l-.632.404.002.003.003.005.012.018.042.064a20.902 20.902 0 0 0 .765 1.058 23.27 23.27 0 0 0 2.216 2.487c.257.249.53.5.819.75l-1.713 1.603ZM218 26c0 .645.153 1.254.424 1.794l-2.095 1.962a17.446 17.446 0 0 1-.879-.795A21.73 21.73 0 0 1 212.909 26a21.73 21.73 0 0 1 2.541-2.96c1.774-1.716 4.091-3.29 6.55-3.29 1.325 0 2.609.457 3.788 1.147l-1.764 1.652a4 4 0 0 0-6.024 3.45Z" clip-rule="evenodd"/>
  <path fill="#111A2C" d="m229.255 21.642-1.098 1.028c.134.122.265.245.393.369a21.73 21.73 0 0 1 2.541 2.96 21.73 21.73 0 0 1-2.541 2.96c-1.774 1.717-4.091 3.29-6.55 3.29-1.105 0-2.181-.317-3.192-.823l-1.158 1.084c1.309.734 2.78 1.24 4.35 1.24 3.064 0 5.747-1.926 7.592-3.711a23.27 23.27 0 0 0 2.981-3.545l.042-.064.012-.018.003-.005.001-.002s.001-.001-.631-.405l.632.404a.752.752 0 0 0 0-.808L232 26l.632-.404-.002-.003-.003-.005-.012-.018-.042-.064a20.988 20.988 0 0 0-.765-1.057 23.27 23.27 0 0 0-2.553-2.807Z"/>
  <path fill="#111A2C" d="M220.6 29.748a4 4 0 0 0 5.232-4.9l-5.232 4.9Z"/>
  <defs>
    <linearGradient id="a" x1="16" x2="68" y1="46" y2="46" gradientUnits="userSpaceOnUse">
      <stop stop-color="#111A2C" stop-opacity=".44"/>
      <stop offset="1" stop-color="#111A2C" stop-opacity=".24"/>
    </linearGradient>
    <linearGradient id="b" x1="16" x2="206" y1="64" y2="64" gradientUnits="userSpaceOnUse">
      <stop stop-color="#111A2C" stop-opacity=".24"/>
      <stop offset="1" stop-color="#111A2C" stop-opacity=".04"/>
    </linearGradient>
    <linearGradient id="c" x1="64" x2="136" y1="98" y2="98" gradientUnits="userSpaceOnUse">
      <stop stop-color="#111A2C" stop-opacity=".44"/>
      <stop offset="1" stop-color="#111A2C" stop-opacity=".24"/>
    </linearGradient>
    <linearGradient id="d" x1="64" x2="254" y1="116" y2="116" gradientUnits="userSpaceOnUse">
      <stop stop-color="#111A2C" stop-opacity=".24"/>
      <stop offset="1" stop-color="#111A2C" stop-opacity=".04"/>
    </linearGradient>
  </defs>
</svg>
